X:1
T:Farnham (Mason), CMD
T:Farnham (Mason), CMD
T:Lowell Mason, 1841
T:Public Domain Courtesy of the Cyber Hymnal™
C:Lowell Mason, 1841
Z:Public Domain
Z:Courtesy of the Cyber Hymnal™
%%score ( 1 2 ) ( 3 4 )
L:1/8
M:3/2
K:F
V:1 treble 
V:2 treble 
V:3 bass 
V:4 bass 
V:1
 [CF]4 | [CA]2 [EG]2 F2 [CE]2 [CF]2 [FA]2 | [EG]8 [FA]4 | [GB]2 [GB]2 [FA]4 [EG]4 | F8 [CF]4 | %5
 [CA]2 [EG]2 F2 [CE]2 [CF]2 [FA]2 | [EG]8 [FA]4 | [GB]2 [GB]2 [FA]4 [EG]4 | F8 [FA]4 | %9
 [EG]2 [EG]2 [DF]4 [CG]4 | [CA]2 [FB]2 [Ec]4 [EG]4 | [EG]2 [DF]2 [CE]4 [=B,D]4 | C8 [EG]4 | %13
 [FA]2 [FA]2 [DF]4 [DF]4 | [GB]2 [GB]2 [EG]4 [Ec]4 | [Fc]2 F2 [FA]4 [EG]4 | F8 |] %17
V:2
 x4 | x4 F2 x6 | x12 | x12 | F8 x4 | x4 F2 x6 | x12 | x12 | F8 x4 | x12 | x12 | x12 | C8 x4 | x12 | %14
 x12 | x2 F2 x8 | F8 |] %17
V:3
 [F,A,]4 | [F,C]2 [C,B,]2 [F,A,]2 [G,B,]2 [A,C]2 [F,C]2 | C8 F,4 | %3
 [B,,F,]2 [B,,D]2 [C,C]4 (C2 B,2) | [F,,F,A,]8 [F,A,]4 | %5
 [F,C]2 [C,B,]2 [F,A,]2 [G,B,]2 [A,C]2 [F,C]2 | [C,C]8 F,4 | [B,,F,]2 [B,,D]2 [C,C]4 (C2 B,2) | %8
 [F,,F,A,]8 [F,C]4 | [C,C]2 [B,,E,]2 [A,,F,]4 [C,C]4 | [F,C]2 [D,F,]2 [C,E,]4 [C,C]4 | %11
 [C,G,]2 [F,,A,]2 [G,,G,]4 (G,2 F,2) | [C,E,]8 [C,C]4 | [A,,C]2 [A,,C]2 [D,A,]4 [D,A,]4 | %14
 [G,,D]2 [G,,D]2 [C,C]4 [C,G,]4 | [F,A,]2 [D,A,]2 [C,C]4 (C2 B,2) | [F,,A,]8 |] %17
V:4
 x4 | x12 | C8 F,4 | x8 C,4 | x12 | x12 | x8 F,4 | x8 C,4 | x12 | x12 | x12 | x8 G,,4 | x12 | x12 | %14
 x12 | x8 C,4 | x8 |] %17

